X: 1
T: Far From Home
R: reel
M: 4/4
L: 1/8
K: Gmaj
|:GEDE G3A|B2BA Bcd2|GEDE G3B|AGAB AGE2|
GEDE G2GA|B2BA Bcd2|edef gedc|BGAF G4:|
|:g3e f3d|edef edB2|gedB G2GB|AGAB AGE2|
GEDE G2GA|B3A Bcd2|edef gedc|BGAF G4:||


Tune 1164	Setting 14432

